X: 1
T: There Will Never Be Another You - violin
C: music: Harry Warren (1942)
C: words: Mack Gordon
O: transposed by Julie Lyonn Lieberman
R: fox-trot
S: Fiddle Hell Online 2021-10-27 workshop handout
Z: 2022 John Chambers <jc:trillian.mit.edu>
M: 4/4
L: 1/8
K: Eb
% %continueall
z6 zuB | "Eb"eBeg- gz3 | zvG=Bd f(edc) | "D-7b5"=b2g2 =a(f_d).g- | gzf2 gece- |
"C-7"e2 c/z/ (_G F)EFE- | Ez3 zuABc | "Bb-7"_decd B"^>"=B-Bd | "Eb7"ef_de =B(c"^>"^c)=d |
"Abmaj7"e_d (3(GA=A) B/_AG/ (3(Ace) | "F-7b5"ba (3(eB-=B) "Bb7"gefd | "Ebmaj7"eB GE B,4- | "C-7"B,2 c'c-c3B |
"F7"((3=Ace (3gec) ((3Ace (3gec) | ((3=Ace (3gec) ((3Ace (3gec) | ((3_Ace (3gec) ((3Ace g2) | "Bb7"(a/g/a/g/ f/e/d/c/ B)b_g=g |
"Ebmaj7"B(cd)e fedc | gb2e'- e'b-b2 | "D-7b5"=b3g agfd | "G7b9"=B(G^F=F) zc'c'2- |
"C-7"c'g(ec) e2c2 | z4 zbc'_d'- |"Bb-7"d'(c'b)a gef_d- | "Eb7"d(cB)A Gb-b2- |
"Abmaj7"b2ab gez2 | "F-7b5"bbab "Bb7"_g2ze | "Ebmaj7"_d'c'ba _gegb | "G-7"e'bc'_g- g(Bc)e- |
"Ebmaj7"eBeg "D7"eBee | "G7"geg(a "C7"=a)b_g=g | "F-7"e_dBA "Bb7"GEz2 | "Eb"z8 |]
